projects/icons/svg/settings2.svg

<?xml version="1.0" encoding="UTF-8" standalone="no"?>
<svg
   viewBox="0 0 700 700"
   version="1.1"
   id="svg9724"
   sodipodi:docname="settings2.svg"
   inkscape:version="1.3.2 (091e20ef0f, 2023-11-25)"
   width="700"
   height="700"
   xmlns:inkscape="http://www.inkscape.org/namespaces/inkscape"
   xmlns:sodipodi="http://sodipodi.sourceforge.net/DTD/sodipodi-0.dtd"
   xmlns="http://www.w3.org/2000/svg"
   xmlns:svg="http://www.w3.org/2000/svg">
  <defs
     id="defs9728" />
  <sodipodi:namedview
     id="namedview9726"
     pagecolor="#ffffff"
     bordercolor="#666666"
     borderopacity="1.0"
     inkscape:showpageshadow="2"
     inkscape:pageopacity="0.0"
     inkscape:pagecheckerboard="0"
     inkscape:deskcolor="#d1d1d1"
     showgrid="true"
     inkscape:zoom="0.59480855"
     inkscape:cx="44.55215"
     inkscape:cy="332.03961"
     inkscape:window-width="1920"
     inkscape:window-height="1048"
     inkscape:window-x="0"
     inkscape:window-y="0"
     inkscape:window-maximized="1"
     inkscape:current-layer="svg9724"
     showguides="true">
    <inkscape:grid
       type="xygrid"
       id="grid9972"
       originx="0"
       originy="0"
       spacingy="1"
       spacingx="1"
       units="px"
       visible="true" />
    <sodipodi:guide
       position="40,400"
       orientation="0,-1"
       id="guide292"
       inkscape:locked="false" />
    <sodipodi:guide
       position="90,200"
       orientation="0,-1"
       id="guide294"
       inkscape:locked="false" />
    <sodipodi:guide
       position="230,500"
       orientation="0,-1"
       id="guide296"
       inkscape:locked="false" />
    <sodipodi:guide
       position="210,300"
       orientation="0,-1"
       id="guide298"
       inkscape:locked="false" />
    <sodipodi:guide
       position="230,100"
       orientation="0,-1"
       id="guide300"
       inkscape:locked="false" />
  </sodipodi:namedview>
  <g
     id="g1"
     transform="translate(49.994141,49.988279)">
    <g
       id="g10449"
       transform="matrix(0.95173205,0,0,0.95115787,13.901174,12.168794)"
       style="stroke-width:1.05103">
      <path
         id="path356"
         style="color:#000000;fill:#000000;stroke-linecap:round;-inkscape-stroke:none"
         d="M 447.70881,-12.781343 A 42.041451,42.041451 0 0 0 405.66786,29.260344 V 50.301721 H 27.434765 a 42.041302,42.041302 0 0 0 -42.04095,42.039633 42.041302,42.041302 0 0 0 42.04095,42.041686 H 405.66786 v 21.06602 a 42.041451,42.041451 0 0 0 42.04095,42.04169 42.041451,42.041451 0 0 0 42.04095,-42.04169 v -21.06602 h 84.0306 a 42.041302,42.041302 0 0 0 42.043,-42.041686 42.041302,42.041302 0 0 0 -42.043,-42.039633 h -84.0306 V 29.260344 A 42.041451,42.041451 0 0 0 447.70881,-12.781343 Z M 143.0012,197.48869 a 42.041451,42.041451 0 0 0 -42.043,42.04169 V 260.5697 H 27.447078 a 42.041302,42.041302 0 0 0 -42.04095,42.04169 42.041302,42.041302 0 0 0 42.04095,42.04169 H 100.9582 v 21.06602 a 42.041451,42.041451 0 0 0 42.043,42.04168 42.041451,42.041451 0 0 0 42.04095,-42.04168 V 344.65308 H 573.79472 A 42.041302,42.041302 0 0 0 615.83567,302.61139 42.041302,42.041302 0 0 0 573.79472,260.5697 H 185.04215 V 239.53038 A 42.041451,42.041451 0 0 0 143.0012,197.48869 Z m 136.59307,210.27209 a 42.041451,42.041451 0 0 0 -42.04095,42.03964 v 21.03932 H 27.447078 a 42.041302,42.041302 0 0 0 -42.04095,42.04169 42.041302,42.041302 0 0 0 42.04095,42.03963 H 237.55332 v 21.06807 a 42.041451,42.041451 0 0 0 42.04095,42.03964 42.041451,42.041451 0 0 0 42.04095,-42.03964 v -21.06807 h 252.1595 a 42.041302,42.041302 0 0 0 42.04095,-42.03963 42.041302,42.041302 0 0 0 -42.04095,-42.04169 h -252.1595 v -21.03932 a 42.041451,42.041451 0 0 0 -42.04095,-42.03964 z" />
    </g>
  </g>
</svg>

<?xml version="1.0" encoding="UTF-8" standalone="no"?>
<svg
   viewBox="0 0 600 600"
   version="1.1"
   id="svg9724"
   sodipodi:docname="settings2.svg"
   inkscape:version="1.2.2 (1:1.2.2+202212051550+b0a8486541)"
   width="600"
   height="600"
   xmlns:inkscape="http://www.inkscape.org/namespaces/inkscape"
   xmlns:sodipodi="http://sodipodi.sourceforge.net/DTD/sodipodi-0.dtd"
   xmlns="http://www.w3.org/2000/svg"
   xmlns:svg="http://www.w3.org/2000/svg">
  <defs
     id="defs9728" />
  <sodipodi:namedview
     id="namedview9726"
     pagecolor="#ffffff"
     bordercolor="#666666"
     borderopacity="1.0"
     inkscape:showpageshadow="2"
     inkscape:pageopacity="0.0"
     inkscape:pagecheckerboard="0"
     inkscape:deskcolor="#d1d1d1"
     showgrid="true"
     inkscape:zoom="0.59480855"
     inkscape:cx="44.55215"
     inkscape:cy="332.03961"
     inkscape:window-width="1920"
     inkscape:window-height="1009"
     inkscape:window-x="0"
     inkscape:window-y="1080"
     inkscape:window-maximized="1"
     inkscape:current-layer="svg9724"
     showguides="true">
    <inkscape:grid
       type="xygrid"
       id="grid9972"
       originx="0"
       originy="0" />
    <sodipodi:guide
       position="40,400"
       orientation="0,-1"
       id="guide292"
       inkscape:locked="false" />
    <sodipodi:guide
       position="90,200"
       orientation="0,-1"
       id="guide294"
       inkscape:locked="false" />
    <sodipodi:guide
       position="230,500"
       orientation="0,-1"
       id="guide296"
       inkscape:locked="false" />
    <sodipodi:guide
       position="210,300"
       orientation="0,-1"
       id="guide298"
       inkscape:locked="false" />
    <sodipodi:guide
       position="230,100"
       orientation="0,-1"
       id="guide300"
       inkscape:locked="false" />
  </sodipodi:namedview>

  <g
     id="g10449"
     transform="matrix(0.95173205,0,0,0.95115787,13.901174,12.168794)"
     style="stroke-width:1.05103">
    <path
       id="path356"
       style="color:#000000;fill:#000000;stroke-linecap:round;-inkscape-stroke:none"
       d="M 447.70881 -12.781343 A 42.041451 42.041451 0 0 0 405.66786 29.260344 L 405.66786 50.301721 L 27.434765 50.301721 A 42.041302 42.041302 0 0 0 -14.606185 92.341354 A 42.041302 42.041302 0 0 0 27.434765 134.38304 L 405.66786 134.38304 L 405.66786 155.44906 A 42.041451 42.041451 0 0 0 447.70881 197.49075 A 42.041451 42.041451 0 0 0 489.74976 155.44906 L 489.74976 134.38304 L 573.78036 134.38304 A 42.041302 42.041302 0 0 0 615.82336 92.341354 A 42.041302 42.041302 0 0 0 573.78036 50.301721 L 489.74976 50.301721 L 489.74976 29.260344 A 42.041451 42.041451 0 0 0 447.70881 -12.781343 z M 143.0012 197.48869 A 42.041451 42.041451 0 0 0 100.9582 239.53038 L 100.9582 260.5697 L 27.447078 260.5697 A 42.041302 42.041302 0 0 0 -14.593872 302.61139 A 42.041302 42.041302 0 0 0 27.447078 344.65308 L 100.9582 344.65308 L 100.9582 365.7191 A 42.041451 42.041451 0 0 0 143.0012 407.76078 A 42.041451 42.041451 0 0 0 185.04215 365.7191 L 185.04215 344.65308 L 573.79472 344.65308 A 42.041302 42.041302 0 0 0 615.83567 302.61139 A 42.041302 42.041302 0 0 0 573.79472 260.5697 L 185.04215 260.5697 L 185.04215 239.53038 A 42.041451 42.041451 0 0 0 143.0012 197.48869 z M 279.59427 407.76078 A 42.041451 42.041451 0 0 0 237.55332 449.80042 L 237.55332 470.83974 L 27.447078 470.83974 A 42.041302 42.041302 0 0 0 -14.593872 512.88143 A 42.041302 42.041302 0 0 0 27.447078 554.92106 L 237.55332 554.92106 L 237.55332 575.98913 A 42.041451 42.041451 0 0 0 279.59427 618.02877 A 42.041451 42.041451 0 0 0 321.63522 575.98913 L 321.63522 554.92106 L 573.79472 554.92106 A 42.041302 42.041302 0 0 0 615.83567 512.88143 A 42.041302 42.041302 0 0 0 573.79472 470.83974 L 321.63522 470.83974 L 321.63522 449.80042 A 42.041451 42.041451 0 0 0 279.59427 407.76078 z " />
  </g>
</svg>
